X: 65
T: Miss Monaghan
R: reel
Z: 2012 John Chambers <jc@trillian.mit.edu>
B: "100 Essential Irish Session Tunes" 1995 Dave Mallinson, ed.
M: 4/4
L: 1/8
K: D
E |\
"D"D2FD FA~A2 | "Bm"BcBA FAAB | "G"dedB ABde | "A7"fede fe~e2 |
"D"D2FD FA~A2 | "Bm"BcBA FAAB | "G"dedB ABdB | "A7"AFEG "D"FD D :|
|: e |\
"D"faab afdf | "Em"gefd ecBc | "G"dedB ABde | "A7"fede fe~e2 |
"D"faab afdf | "Em"gefd ecBc | "G"dedB ABdB | "A7"AFEG "D"FD D :|

%%sep 2 1 500
%%sep 1 1 500

